icons/circle/48/parole.svg

<svg xmlns="http://www.w3.org/2000/svg" viewBox="0 0 48 48">
 <defs>
  <linearGradient id="linearGradient3764" x1="1" x2="47" gradientUnits="userSpaceOnUse" gradientTransform="matrix(0,-1,1,0,-1.5e-6,47.999998)">
   <stop style="stop-color:#3d3d3d;stop-opacity:1"/>
   <stop offset="1" style="stop-color:#474747;stop-opacity:1"/>
  </linearGradient>
 </defs>
 <g>
  <path d="m 36.31 5 c 5.859 4.062 9.688 10.831 9.688 18.5 c 0 12.426 -10.07 22.5 -22.5 22.5 c -7.669 0 -14.438 -3.828 -18.5 -9.688 c 1.037 1.822 2.306 3.499 3.781 4.969 c 4.085 3.712 9.514 5.969 15.469 5.969 c 12.703 0 23 -10.298 23 -23 c 0 -5.954 -2.256 -11.384 -5.969 -15.469 c -1.469 -1.475 -3.147 -2.744 -4.969 -3.781 z m 4.969 3.781 c 3.854 4.113 6.219 9.637 6.219 15.719 c 0 12.703 -10.297 23 -23 23 c -6.081 0 -11.606 -2.364 -15.719 -6.219 c 4.16 4.144 9.883 6.719 16.219 6.719 c 12.703 0 23 -10.298 23 -23 c 0 -6.335 -2.575 -12.06 -6.719 -16.219 z" style="opacity:0.05"/>
  <path d="m 41.28 8.781 c 3.712 4.085 5.969 9.514 5.969 15.469 c 0 12.703 -10.297 23 -23 23 c -5.954 0 -11.384 -2.256 -15.469 -5.969 c 4.113 3.854 9.637 6.219 15.719 6.219 c 12.703 0 23 -10.298 23 -23 c 0 -6.081 -2.364 -11.606 -6.219 -15.719 z" style="opacity:0.1"/>
  <path d="m 31.25 2.375 c 8.615 3.154 14.75 11.417 14.75 21.13 c 0 12.426 -10.07 22.5 -22.5 22.5 c -9.708 0 -17.971 -6.135 -21.12 -14.75 a 23 23 0 0 0 44.875 -7 a 23 23 0 0 0 -16 -21.875 z" style="opacity:0.2"/>
 </g>
 <g>
  <path d="m 24 1 c -12.703 0 -23 10.297 -23 23 0 3.985 1.014 7.732 2.797 11 2.203 2 38.2 2 40.41 0 1.783 -3.268 2.797 -7.01 2.797 -11 0 -12.703 -10.297 -23 -23 -23" style="fill:url(#linearGradient3764);fill-opacity:1"/>
  <path d="m 3.797 35 c 3.901 7.149 11.485 12 20.2 12 c 8.718 0 16.302 -4.851 20.2 -12 l -40.41 0 z" style="fill:#e5e5e5;fill-opacity:1"/>
 </g>
 <g>
  <g>
   <g transform="translate(1,1)">
    <g style="opacity:0.1">
     <!-- color: #474747 -->
     <g>
      <path d="M 19 10 L 19 29.996094 L 33.996094 20 M 19 10 " style="fill:#000;fill-opacity:1;stroke:none;fill-rule:nonzero"/>
     </g>
    </g>
   </g>
  </g>
 </g>
 <g>
  <g>
   <!-- color: #474747 -->
   <g>
    <path d="M 19 10 L 19 29.996094 L 33.996094 20 M 19 10 " style="fill:#e5265b;fill-opacity:1;stroke:none;fill-rule:nonzero"/>
    <path d="m 16.594,37 14.813,0 c 0.879,0 1.594,0.715 1.594,1.594 l 0,0.813 c 0,0.879 -0.715,1.594 -1.594,1.594 l -14.813,0 C 15.711,41.001 15,40.286 15,39.407 l 0,-0.813 C 15,37.715 15.711,37 16.594,37 m 0,0" style="fill:#9d9d9d;fill-opacity:1;stroke:none;fill-rule:nonzero"/>
    <path d="M 16.594,37 C 15.711,37 15,37.711 15,38.594 l 0,0.813 c 0,0.883 0.711,1.594 1.594,1.594 l 7.406,0 0,-4 m -7.406,0" style="fill:#e5265b;fill-opacity:1;stroke:none;fill-rule:nonzero"/>
   </g>
  </g>
 </g>
 <g>
  <path d="m 40.03 7.531 c 3.712 4.084 5.969 9.514 5.969 15.469 0 12.703 -10.297 23 -23 23 c -5.954 0 -11.384 -2.256 -15.469 -5.969 4.178 4.291 10.01 6.969 16.469 6.969 c 12.703 0 23 -10.298 23 -23 0 -6.462 -2.677 -12.291 -6.969 -16.469 z" style="opacity:0.1"/>
 </g>
</svg>

<svg xmlns="http://www.w3.org/2000/svg" viewBox="0 0 48 48">
  <defs>
    <linearGradient id="a" x1="1" x2="47" gradientUnits="userSpaceOnUse" gradientTransform="rotate(-90 24 24)">
      <stop stop-color="#3d3d3d"/>
      <stop offset="1" stop-color="#474747"/>
    </linearGradient>
  </defs>
  <path d="M36.31 5c5.859 4.062 9.688 10.831 9.688 18.5 0 12.426-10.07 22.5-22.5 22.5-7.669 0-14.438-3.828-18.5-9.688a23.24 23.24 0 0 0 3.781 4.969 22.923 22.923 0 0 0 15.469 5.969c12.703 0 23-10.298 23-23a22.92 22.92 0 0 0-5.969-15.469A23.216 23.216 0 0 0 36.31 5zm4.969 3.781A22.911 22.911 0 0 1 47.498 24.5c0 12.703-10.297 23-23 23a22.909 22.909 0 0 1-15.719-6.219C12.939 45.425 18.662 48 24.998 48c12.703 0 23-10.298 23-23 0-6.335-2.575-12.06-6.719-16.219z" opacity=".05"/>
  <path d="M41.28 8.781a22.923 22.923 0 0 1 5.969 15.469c0 12.703-10.297 23-23 23A22.92 22.92 0 0 1 8.78 41.281 22.911 22.911 0 0 0 24.499 47.5c12.703 0 23-10.298 23-23A22.909 22.909 0 0 0 41.28 8.781z" opacity=".1"/>
  <path d="M31.25 2.375C39.865 5.529 46 13.792 46 23.505c0 12.426-10.07 22.5-22.5 22.5-9.708 0-17.971-6.135-21.12-14.75a23 23 0 0 0 44.875-7 23 23 0 0 0-16-21.875z" opacity=".2"/>
  <path d="M24 1C11.297 1 1 11.297 1 24c0 3.985 1.014 7.732 2.797 11 2.203 2 38.2 2 40.41 0a22.881 22.881 0 0 0 2.797-11c0-12.703-10.297-23-23-23" fill="url(#a)"/>
  <path d="M3.797 35c3.901 7.149 11.485 12 20.2 12 8.718 0 16.302-4.851 20.2-12H3.787z" fill="#e5e5e5"/>
  <g>
    <path d="M20 11v19.996L34.996 21M20 11" opacity=".1"/>
  </g>
  <g>
    <path d="M19 10v19.996L33.996 20M19 10" fill="#e5265b"/>
    <path d="M16.594 37h14.813c.879 0 1.594.715 1.594 1.594v.813c0 .879-.715 1.594-1.594 1.594H16.594A1.593 1.593 0 0 1 15 39.407v-.813c0-.879.711-1.594 1.594-1.594m0 0" fill="#9d9d9d"/>
    <path d="M16.594 37A1.59 1.59 0 0 0 15 38.594v.813a1.59 1.59 0 0 0 1.594 1.594H24v-4m-7.406 0" fill="#e5265b"/>
  </g>
  <g>
    <path d="M40.03 7.531A22.922 22.922 0 0 1 45.999 23c0 12.703-10.297 23-23 23A22.92 22.92 0 0 1 7.53 40.031C11.708 44.322 17.54 47 23.999 47c12.703 0 23-10.298 23-23 0-6.462-2.677-12.291-6.969-16.469z" opacity=".1"/>
  </g>
</svg>
